X: 401
T: Sonata	 Op. 65
C: Fryderyk Chopin
%%abc-version 2.0
%%abcx-abcm2ps-target-version 5.9.1 (29 Sep 2008)
%%abc-creator hum2abc beta
%%abcx-conversion-date 2021/10/03 11:24:05
%%abc-edited-by Wojciech Jakubiak-Danek
%%abcx-initial-encoding-date 2020-04-27
%%humdrum-veritas 1634973213
%%humdrum-veritas-data 229978702
%%linebreak <none>
%%barnumbers 0
L: 1/8
M: 3/2
N: Derived from 065-1-BH-003-violino.krn
P: Sonate pour Piano et Violoncelle
K: Bb clef=treble
d4edcg2<f2e | 
d2>B2B2{/c2B2A2B2} d>cc2z2 | 
B,8=A,4 | 
B,4[=E4G,4][F2A,2]z2 | 
e4fed_a2<g2f | 
e2>c2d2{/e2d2c2d2} f>ee4 | 
C4=B,4C4 | 
A,4B,4C4 | 
B,2z2gfec2<B2_a | 
g2z2B,4C4 | 
D4E4=E4 | 
D4ABAB2<c2.c | 
c4-cdcd2<e2d | 
!accent!^c4ed=cg2<f2e | 
d2>B2B2{/c2B2A2B2} d>cc2z2 | 
_A,4B,4G,4 | 
_A,2C2E2=D2E2z2 | 
B4cBGF2<=E2c | 
c4dc=AG2<^F2d | 
d4d2cde2{/fe} de | 
gfeA dcB^F AGA{/c}B | 
=F4G4F4 | 
d4cBAB2<c2_E | 
D4E4=A,4 | 
B,4-B,C=EG GF_EA, | 
F4G4F4 | 
{/F}!fermata!B12 |]
